X:31
T:Jigs simple chords 3
M:3/4
L:1/8
K:D
A[dD,F,A,] ef fe | d[BG,B,D] dB AF | D[DD,F,A,] FA B2 | A[cE,G,B,] ee e2 | A[dD,F,A,] ef fe |
d[BG,B,D] dB AF | D[DD,F,A,] FA B2 | A[AA,CEG] dd d2 | A[dD,F,A,] ef fe |
d[BG,B,D] dB AF | D[DD,F,A,] FA B2 | A[cE,G,B,] ee e2 | A[dD,F,A,] ef fe |
d[BG,B,D] dB AF | D[DD,F,A,] FA B2 | A[AA,CEG] dd d2 | e[fD,F,A,] ga ag |
f[gG,B,D] ab ba | g[fD,F,A,] ga ag | f[gE,G,B,] fg e2 | g[fD,F,A,] ga ag |
f[gG,B,D] ab ba | g[fD,F,A,] ga ef | g[fD,F,A,] dd d2 | e[fD,F,A,] ga ag |
f[gG,B,D] ab ba | g[fD,F,A,] ga ag | f[gE,G,B,] fg e2 | g[fD,F,A,] ga ag |
f[gG,B,D] ab ba | g[fD,F,A,] ga ef | g[fD,F,A,] dd d2 |


